X:1150
T:Welsh Fuzileer's March.
M:C
L:1/8
Q:1/2=60
N:triplets not marked explicitly
N:bar 9 printed as |e3 f2 e2 a2|
Z:Jack Campin * www.campin.me.uk * 2009
K:D
d4     F>E`F>G|A2 A>A Af`ed|      c>d````````cB   A>BAG |F>E D>D D2 A2|
B2 B>B B2  dB |A2 A>A A2 fa|      g2         e>g  f2 d>f|e3    f e2 a2|e2 e>e e>e e>e|e6 z2||
a4     c>B`cd |e2 e>e e2 a2|      a^g````````gf   fe`ed |c2  c>c c2 A2|
d2 d>f f2  f>a|ab a4     g2|{g}(3(fef) {a}(3(gfe) d2 c2 |d2  A2  B2 c2|d2 d>d d>d d>d|d6 z2|]

